packages/components/Atoms/Icon/assets/img/rpl_icon_senior.svg

<svg width="9" height="12" viewBox="0 0 9 12" overflow="visible" xmlns="http://www.w3.org/2000/svg">
  <path d="M3.81639 2.03839L6.71271 4.73749C6.84815 4.87293 6.84815 5.09247 6.71271 5.22791L6.22229 5.71887C6.08686 5.85431 5.86677 5.85431 5.73133 5.71887L3.82185 4.02106L3.12084 4.88593L5.2031 6.90384C5.39315 7.09389 5.4565 7.37733 5.3653 7.62964L3.10602 11.7314C3.0383 11.9105 2.83842 12.0006 2.65984 11.9329L2.07036 11.6352C1.89178 11.5675 1.80167 11.3681 1.86939 11.1895L3.90265 7.62964L3.24305 6.99691L1.26331 10.3186C1.19341 10.4972 0.991886 10.5846 0.813851 10.5147L0.22014 10.1934C0.0415583 10.1229 -0.0458211 9.92196 0.0240824 9.74338L2.28449 6L1.72693 5.51464C1.48282 5.27052 1.44404 4.87513 1.66249 4.60753C2.9142 3.0702 3.81639 2.03839 3.81639 2.03839ZM6.8933 2.30478C6.36577 2.83174 5.51158 2.83174 4.98459 2.30478C4.45706 1.77728 4.45706 0.922587 4.98459 0.395626C5.51158 -0.131875 6.36577 -0.131875 6.8933 0.395626C7.42083 0.922587 7.42083 1.77728 6.8933 2.30478ZM8.47786 11.4963C8.505 11.6854 8.37332 11.8614 8.18366 11.8884L7.49709 11.9874C7.3069 12.0143 7.13092 11.8826 7.10391 11.6929L6.42292 7.01988C6.39618 6.83141 6.52746 6.65702 6.71553 6.62961L7.39853 6.53143C7.58713 6.50416 7.76152 6.63544 7.78879 6.82404L7.82511 7.06892L8.02025 8.38566L8.47786 11.4963Z"
    fill="inherit" />
</svg>

<svg width="9" height="12" overflow="visible" xmlns="http://www.w3.org/2000/svg"><path d="M3.816 2.038l2.897 2.7a.347.347 0 010 .49l-.49.49a.347.347 0 01-.492 0l-1.91-1.697-.7.865 2.082 2.018c.19.19.253.473.162.726L3.106 11.73a.346.346 0 01-.446.202l-.59-.298a.346.346 0 01-.2-.445l2.033-3.56-.66-.633-1.98 3.322a.347.347 0 01-.45.196l-.593-.322a.347.347 0 01-.196-.45L2.284 6l-.557-.485c-.244-.244-.283-.64-.065-.907 1.252-1.538 2.154-2.57 2.154-2.57zm3.077.267A1.35 1.35 0 114.985.395a1.35 1.35 0 011.908 1.91zm1.585 9.191a.347.347 0 01-.294.392l-.687.1a.347.347 0 01-.393-.295L6.423 7.02a.346.346 0 01.293-.39l.683-.099a.345.345 0 01.39.293l.036.245.195 1.317.458 3.11z" fill="inherit"/></svg>
